img/social-icon/ulinkedin.svg

<svg width="111" height="110" viewBox="0 0 111 110" fill="none" xmlns="http://www.w3.org/2000/svg">
<g id="uil:linkedin">
<path id="Vector" d="M94.3188 9.16519H16.6772C15.8044 9.15307 14.9378 9.31299 14.1269 9.63583C13.3159 9.95866 12.5765 10.4381 11.9509 11.0467C11.3252 11.6553 10.8256 12.3812 10.4805 13.183C10.1354 13.9847 9.95165 14.8466 9.9397 15.7194V94.2777C9.95165 95.1505 10.1354 96.0124 10.4805 96.8141C10.8256 97.6159 11.3252 98.3418 11.9509 98.9504C12.5765 99.559 13.3159 100.038 14.1269 100.361C14.9378 100.684 15.8044 100.844 16.6772 100.832H94.3188C95.1916 100.844 96.0582 100.684 96.8691 100.361C97.6801 100.038 98.4195 99.559 99.0452 98.9504C99.6708 98.3418 100.17 97.6159 100.516 96.8141C100.861 96.0124 101.044 95.1505 101.056 94.2777V15.7194C101.044 14.8466 100.861 13.9847 100.516 13.183C100.17 12.3812 99.6708 11.6553 99.0452 11.0467C98.4195 10.4381 97.6801 9.95866 96.8691 9.63583C96.0582 9.31299 95.1916 9.15307 94.3188 9.16519ZM37.5772 85.8902H23.8272V44.6402H37.5772V85.8902ZM30.7022 38.8652C28.8059 38.8652 26.9873 38.1119 25.6464 36.771C24.3055 35.4301 23.5522 33.6115 23.5522 31.7152C23.5522 29.8189 24.3055 28.0003 25.6464 26.6594C26.9873 25.3185 28.8059 24.5652 30.7022 24.5652C31.7091 24.451 32.7288 24.5508 33.6945 24.858C34.6602 25.1652 35.5502 25.6729 36.306 26.3479C37.0619 27.0229 37.6667 27.85 38.0808 28.7749C38.4948 29.6998 38.7089 30.7018 38.7089 31.7152C38.7089 32.7286 38.4948 33.7306 38.0808 34.6555C37.6667 35.5804 37.0619 36.4075 36.306 37.0825C35.5502 37.7575 34.6602 38.2652 33.6945 38.5724C32.7288 38.8796 31.7091 38.9794 30.7022 38.8652ZM87.1688 85.8902H73.4188V63.7527C73.4188 58.2069 71.448 54.5861 66.4522 54.5861C64.906 54.5974 63.4005 55.0823 62.1385 55.9756C60.8765 56.8689 59.9186 58.1275 59.3938 59.5819C59.0352 60.6592 58.8798 61.7937 58.9355 62.9277V85.8444H45.1855V44.5944H58.9355V50.4152C60.1846 48.2478 62.0013 46.4622 64.19 45.2507C66.3787 44.0393 68.8564 43.4479 71.3563 43.5402C80.523 43.5402 87.1688 49.4527 87.1688 62.1486V85.8902Z" fill="white"/>
</g>
</svg>

<svg width="111" height="110" viewBox="0 0 111 110" fill="none" xmlns="http://www.w3.org/2000/svg"><g id="uil:linkedin"><path id="Vector" d="M94.319 9.165H16.677A6.645 6.645 0 009.94 15.72v78.559a6.645 6.645 0 006.737 6.554H94.32a6.645 6.645 0 006.737-6.554v-78.56a6.647 6.647 0 00-4.187-6.083 6.645 6.645 0 00-2.55-.47zM37.577 85.89h-13.75V44.64h13.75v41.25zm-6.875-47.025a7.15 7.15 0 010-14.3 7.196 7.196 0 110 14.3zM87.17 85.89H73.42V63.753c0-5.546-1.971-9.167-6.967-9.167a7.562 7.562 0 00-7.058 4.996 9.17 9.17 0 00-.459 3.346v22.916h-13.75v-41.25h13.75v5.821a13.75 13.75 0 0112.421-6.875c9.167 0 15.813 5.913 15.813 18.609V85.89z" fill="#fff"/></g></svg>
